X:2
I:linebreak $
T:Turkelone
N:Arr. Monique Rio. Matches Pile 2018.
C:Willoughby Lute Book, c.1585
P:AA BB CC D x 4
M:6/4
L:1/4
K:G dorian
P:A
"D"^F3/F/FF3/G/F | "Gm"G2"D"F"Gm"G2"D"A | "Bb"B2B"F"A3/B/A | "Bb"B3/B/BB/B/"F"A2 | "Gm"G3/G/G"D"^F3/G/F | "G"G3/G/GGGG ::
P:B
"Gm"G3/G/G"D"^F3/G/F | "Gm"G3/G/G"D"^F2F ::
P:C
"Gm"G3/G/G"Dm"A3/B/A | "Bb"B3/B/BBB"F"A | "Gm"G3/G/G"D"^F3/E/F | "G"G3/G/GGGG :| 
P:D
"C"E3/E/EEEE | "C"E3/E/EE2E | "F"F3/E/F"C"E3/D/E | "D"^F3/E/F/G/FFF |]

